public/assets/standards/rtc/feat-icon-4.svg

<svg width="66" height="68" viewBox="0 0 66 68" fill="none" xmlns="http://www.w3.org/2000/svg">
<path d="M30.8057 6.02C44.4357 6.02 55.5257 17.11 55.5257 30.74C55.5257 44.37 44.4357 55.46 30.8057 55.46C17.1757 55.46 6.08567 44.37 6.08567 30.74C6.08567 17.11 17.1757 6.02 30.8057 6.02ZM30.8057 0.5C14.1057 0.5 0.565674 14.04 0.565674 30.74C0.565674 47.44 14.1057 60.98 30.8057 60.98C47.5057 60.98 61.0457 47.44 61.0457 30.74C61.0457 14.04 47.5057 0.5 30.8057 0.5Z" fill="#006D68"/>
<path d="M52.6156 34.2799V27.1999H45.7056C45.3256 25.5899 44.6856 24.0699 43.8356 22.6999L48.7256 17.8099L43.7256 12.8099L38.8356 17.6999C37.4656 16.8499 35.9556 16.2199 34.3356 15.8299V8.91992H27.2556V15.8299C25.6456 16.2099 24.1256 16.8499 22.7556 17.6999L17.8656 12.8099L12.8656 17.8099L17.7556 22.6999C16.9056 24.0699 16.2756 25.5799 15.8856 27.1999H8.97559V34.2799H15.8856C16.2656 35.8899 16.9056 37.4099 17.7556 38.7799L12.8656 43.6699L17.8656 48.6699L22.7556 43.7799C24.1256 44.6299 25.6356 45.2599 27.2556 45.6499V52.5599H34.3356V45.6499C35.9456 45.2699 37.4656 44.6299 38.8356 43.7799L43.7256 48.6699L48.7256 43.6699L43.8356 38.7799C44.6856 37.4099 45.3156 35.8999 45.7056 34.2799H52.6156ZM30.8056 40.1699C25.5956 40.1699 21.3756 35.9499 21.3756 30.7399C21.3756 25.5299 25.5956 21.3099 30.8056 21.3099C36.0156 21.3099 40.2356 25.5299 40.2356 30.7399C40.2356 35.9499 36.0156 40.1699 30.8056 40.1699Z" fill="#A5C352"/>
<path d="M51.1657 48.8599C50.0457 48.8599 48.9257 49.2899 48.0757 50.1399C46.3657 51.8499 46.3657 54.6199 48.0757 56.3199L57.9657 66.2099C58.8157 67.0599 59.9357 67.4899 61.0557 67.4899C62.1757 67.4899 63.2957 67.0599 64.1457 66.2099C65.8557 64.4999 65.8557 61.7299 64.1457 60.0299L54.2557 50.1399C53.4057 49.2899 52.2857 48.8599 51.1657 48.8599Z" fill="#006D68"/>
</svg>

<svg xmlns="http://www.w3.org/2000/svg" width="66" height="68" fill="none" viewBox="0 0 66 68"><path fill="#006d68" d="M30.806 6.02c13.63 0 24.72 11.09 24.72 24.72s-11.09 24.72-24.72 24.72-24.72-11.09-24.72-24.72 11.09-24.72 24.72-24.72m0-5.52C14.106.5.566 14.04.566 30.74s13.54 30.24 30.24 30.24 30.24-13.54 30.24-30.24S47.506.5 30.806.5"/><path fill="#a5c352" d="M52.616 34.28V27.2h-6.91c-.38-1.61-1.02-3.13-1.87-4.5l4.89-4.89-5-5-4.89 4.89c-1.37-.85-2.88-1.48-4.5-1.87V8.92h-7.08v6.91c-1.61.38-3.13 1.02-4.5 1.87l-4.89-4.89-5 5 4.89 4.89c-.85 1.37-1.48 2.88-1.87 4.5h-6.91v7.08h6.91c.38 1.61 1.02 3.13 1.87 4.5l-4.89 4.89 5 5 4.89-4.89c1.37.85 2.88 1.48 4.5 1.87v6.91h7.08v-6.91c1.61-.38 3.13-1.02 4.5-1.87l4.89 4.89 5-5-4.89-4.89c.85-1.37 1.48-2.88 1.87-4.5zm-21.81 5.89c-5.21 0-9.43-4.22-9.43-9.43s4.22-9.43 9.43-9.43 9.43 4.22 9.43 9.43-4.22 9.43-9.43 9.43"/><path fill="#006d68" d="M51.166 48.86c-1.12 0-2.24.43-3.09 1.28a4.364 4.364 0 0 0 0 6.18l9.89 9.89c.85.85 1.97 1.28 3.09 1.28s2.24-.43 3.09-1.28a4.364 4.364 0 0 0 0-6.18l-9.89-9.89a4.36 4.36 0 0 0-3.09-1.28"/></svg>
